Hatter-kde/actions/16/xml-element-new.svg

<svg xmlns="http://www.w3.org/2000/svg" viewBox="0 0 16 16">
  <defs id="defs3051">
    <style type="text/css" id="current-color-scheme">
      .ColorScheme-Text {
        color:#363636;
      }
      </style>
  </defs>
 <path style="fill:currentColor;fill-opacity:1;stroke:none" 
       d="M 9.0898438 2 L 5.9433594 13.740234 L 6.9101562 14 L 10.056641 2.2597656 L 9.0898438 2 z M 5.2851562 4 L 2.3242188 7.1445312 L 2 7.4921875 L 2.3242188 7.8378906 L 5.2675781 11 L 5.9824219 10.304688 L 3.3613281 7.4921875 L 6 4.6953125 L 5.2851562 4 z M 10.714844 4 L 10 4.6953125 L 12.638672 7.4921875 L 12.166016 8 L 13.525391 8 L 13.675781 7.8378906 L 14 7.4921875 L 13.675781 7.1445312 L 10.714844 4 z M 11 9 L 11 11 L 9 11 L 9 12 L 11 12 L 11 14 L 12 14 L 12 12 L 14 12 L 14 11 L 12 11 L 12 9 L 11 9 z "
     class="ColorScheme-Text"
     />
</svg>

<?xml version="1.0" encoding="UTF-8"?>
<svg viewBox="0 0 16 16" xmlns="http://www.w3.org/2000/svg">
 <defs id="defs3051">
  <style id="current-color-scheme" type="text/css">.ColorScheme-Text {
        color:#363636;
      }</style>
 </defs>
 <path class="ColorScheme-Text" d="m9.0898 2-3.1465 11.74 0.9668 0.25977 3.1465-11.74-0.9668-0.25977zm-3.8047 2-2.9609 3.1445-0.32422 0.34766 0.32422 0.3457 2.9434 3.1621 0.71484-0.69531-2.6211-2.8125 2.6387-2.7969-0.71484-0.69531zm5.4297 0-0.71484 0.69531 2.6387 2.7969-0.47266 0.50781h1.3594l0.15039-0.16211 0.32422-0.3457-0.32422-0.34766-2.9609-3.1445zm0.28516 5v2h-2v1h2v2h1v-2h2v-1h-2v-2h-1z" fill="currentColor"/>
</svg>
